X:207
T:Baron Manchausen's Quadrilles No.2. Le4.207
M:2/4
L:1/8
Q:2/4=50
N:* May not be a ^f, Mss scan indistinct
B:L.Leadley MS#4 c1850
Z:Village Music Project 2016 Steve Mansfield
K:A
e/e/ | a>{g}e ae | {g}af{g}af | {g}ae{g}ae | e/d/c/d/ Be/e/ |
{g}ae{g}ae | {g}gf{g}gf | aA e/f/e/d/ | cAA ||
E | .E.d.d.d | d2 d2 | cB/A/ ee | c2 Ac |
Eddd | d2 d2 | cc^dd | e3 e |
(fc)(c^d) | (ebge) | ("*"^fcc^d) |
.e.e.=d.d | ccAA & GGEE | ddaa | .a.a/.a/ .g.g | a z A !D.C.! |]

